X: 5
T: Michael Russell's
R: slide
M: 12/8
L: 1/8
K: Dmaj
|: dcB |A2 A ABA ABA F2 E | DFA B2 A B2 A FGA |
dcd a2 g f2 d B2 ^A | B2 A B^AB d3 :|
|: d2 A |dcd a2 g f2 d B2 ^A | B2 A B^AB B2 =A FF/G/A |
dcd a2 g f2 d B2 ^A | B2 A B^AB d3 :|


Tune 958	Setting 958

